X:1
T:Our Captain's Last Words
M:4/4
L:1/8
K:G
 D3 GB-AG-A| B3 DE G3|F-E D2 G3 G|F-GA-B A4| A3 cB-AG-A| B3 DE G3|\
F-E D2 G3 G|F-G-B A G4| A3 FA-GF-E| D3 D E2 D2| B3 G D3 G|F-GA-B A4|\
 A3 cB-AG-A| B3 DE G3|F-E D2 G3 G|F-G-B A G4| B d3- d2 z2| A d3- d2 z2|\
F-E D2 G3 G|F-G-A A G4|
